X:445
T:Hill's Maggot. (p).1701.PLFD.445
M:4/4
L:1/8
Q:1/2=100
S:Playford, Dancing Master,11th Ed.,1701.
O:England
Z:Chris Partington.
K:C
GF|EFGAG2E2|F2D2E2DC|B,2D4GF|EFGAG2F2|c2E2F2ED|E2C4:|
gf efgag2e2|f2d2e2dc|B3cd2ef|gagfe2fg|agfed2ef|e2c4:|
|:_B2|A3G/F/|G3A/B/|cBc2A2Bc|d2D4_B2|A3G/F/G3A/B/|cBc2D2B2|c2C4:|
